public/imgs/serviceIcon.svg

<svg width="34" height="34" viewBox="0 0 34 34" fill="none" xmlns="http://www.w3.org/2000/svg">
    <path fill-rule="evenodd" clip-rule="evenodd" d="M24.9998 19.9998 30 30H0L5.00021 19.9998H24.9998zM15 0l4.9998 9.99979H10.0002L15 0zM41.6667.0c2.7614.0 5 2.23858 5 5s-2.2386 5-5 5c-2.7615.0-5-2.23858-5-5s2.2385-5 5-5zm-5 30V20h10V30h-10zM75 20H56.6667V30H75C77.7614 30 80 27.7614 80 25S77.7614 20 75 20zM56.6667.0H68.3333c2.76150000000001.0 5 2.23858 5 5S71.0948 10 68.3333 10H56.6667V0zM77.5939 43.8512C77.9255 44.0839 78.1137 44.4092 78.1583 44.827H79.866C79.8564 44.2753 79.7018 43.7874 79.402 43.3633 79.1022 42.9359 78.6893 42.6027 78.1631 42.3635 77.6401 42.1212 77.0311 42 76.3359 42 75.6503 42 75.0364 42.1212 74.4943 42.3635 73.9522 42.6027 73.5233 42.9391 73.2076 43.3728 72.895 43.8065 72.7388 44.312 72.7388 44.8891 72.7388 45.5907 72.9716 46.1535 73.4372 46.5777 73.9059 46.9986 74.5437 47.3127 75.3505 47.52L76.465 47.807C76.8158 47.8963 77.1219 47.9983 77.3834 48.1131 77.6481 48.2247 77.8538 48.3651 78.0005 48.5341 78.1472 48.6999 78.2221 48.9104 78.2253 49.1655 78.2221 49.4461 78.1376 49.6916 77.9718 49.9021 77.806 50.1094 77.5764 50.272 77.283 50.39 76.9928 50.5048 76.6548 50.5622 76.2689 50.5622 75.899 50.5622 75.5642 50.5064 75.2644 50.3948 74.9678 50.2832 74.7271 50.1142 74.5421 49.8878 74.3572 49.6613 74.2519 49.3775 74.2264 49.0363H72.4805C72.506 49.6869 72.675 50.2385 72.9875 50.6914 73.3032 51.1442 73.7401 51.4886 74.2982 51.7246 74.8594 51.9605 75.5211 52.0785 76.2832 52.0785 77.0677 52.0785 77.7358 51.9573 78.2875 51.715 78.8423 51.4694 79.2665 51.1298 79.5599 50.6961 79.8532 50.2593 79.9999 49.7538 79.9999 49.1798 79.9999 48.7557 79.9202 48.3858 79.7607 48.0701 79.6013 47.7544 79.3845 47.4849 79.1102 47.2617 78.8392 47.0385 78.5314 46.8535 78.187 46.7068 77.8458 46.5601 77.4903 46.4437 77.1203 46.3576L76.2019 46.128C76.001 46.0802 75.8017 46.0212 75.604 45.951 75.4063 45.8809 75.2261 45.7948 75.0635 45.6927 74.9009 45.5875 74.7717 45.46 74.676 45.3101 74.5836 45.1602 74.5373 44.9832 74.5373 44.7791 74.5405 44.5336 74.6123 44.3151 74.7526 44.1238 74.8929 43.9325 75.0954 43.781 75.3601 43.6694 75.6247 43.5578 75.942 43.502 76.312 43.502 76.8381 43.502 77.2654 43.6184 77.5939 43.8512zM62.973 42.1339v1.4877h3.0279v8.3087h1.7603V43.6216H70.789V42.1339H62.973zm-2.03.0V51.9303H59.1684V42.1339H60.943zm-11.1662.0V51.9303h3.9654C54.4916 51.9303 55.1134 51.8139 55.6077 51.5811 56.102 51.3483 56.4719 51.031 56.7174 50.6292 56.963 50.2242 57.0857 49.7682 57.0857 49.2611 57.0857 48.7637 56.9837 48.3396 56.7796 47.9888 56.5755 47.638 56.3124 47.3669 55.9903 47.1756 55.6714 46.9811 55.3382 46.8743 54.9906 46.8551V46.7595C55.3095 46.6829 55.5981 46.557 55.8564 46.3816 56.1147 46.2062 56.3204 45.9782 56.4735 45.6975 56.6265 45.4137 56.7031 45.0725 56.7031 44.6739 56.7031 44.1892 56.5851 43.7555 56.3491 43.3728 56.1163 42.9902 55.7639 42.6888 55.292 42.4688 54.8232 42.2456 54.2348 42.1339 53.5269 42.1339H49.7768zM53.4599 50.4474H51.5514v-2.87h1.9564C53.8745 47.5774 54.1902 47.646 54.4549 47.7831 54.7196 47.917 54.9236 48.102 55.0672 48.338 55.2107 48.5708 55.2824 48.8322 55.2824 49.1224 55.2824 49.5115 55.1389 49.8304 54.8519 50.0791 54.5681 50.3246 54.1041 50.4474 53.4599 50.4474zM53.3069 46.3003H51.5514V43.5977h1.7937C53.8681 43.5977 54.262 43.7204 54.5266 43.966 54.7945 44.2115 54.9284 44.524 54.9284 44.9035 54.9284 45.1905 54.8567 45.4392 54.7132 45.6497 54.5729 45.857 54.3799 46.018 54.1344 46.1328 53.8889 46.2444 53.613 46.3003 53.3069 46.3003zm-9.8827-4.1664V51.9303H41.8457l-4.6159-6.6728H37.1484v6.6728H35.3738V42.1339h1.5881L41.5731 48.8115H41.6592V42.1339h1.765zM32.9133 51.9303V42.1339H31.1386V51.9303h1.7747zm-13.8228.0V42.1339h1.7747v8.3087h4.3145v1.4877H19.0905zM10.9222 42.1339V51.9303h6.0892V50.4426H12.6969V42.1339H10.9222zM1.89421 51.9303H0L3.4488 42.1339H5.63958L9.09316 51.9303H7.19895L6.38732 49.5147H2.70435L1.89421 51.9303zM4.58245 44.143l1.32593 3.9462H3.18242l1.3235-3.9462h.07653z" fill="#363636"></path>
</svg>

<svg xmlns="http://www.w3.org/2000/svg" fill="none" viewBox="0 0 216 27"><path fill="#363636" fill-rule="evenodd" d="m25 20 5 10H0l5-10zM15 0l5 10H10zm26.667 0a5 5 0 1 1 0 10 5 5 0 0 1 0-10m-5 30V20h10v10zM75 20H56.667v10H75a5 5 0 0 0 0-10M56.667 0h11.666a5 5 0 1 1 0 10H56.667zm20.927 43.851q.498.35.564.976h1.708a2.55 2.55 0 0 0-.464-1.464q-.45-.64-1.239-1Q77.38 42 76.336 42q-1.029 0-1.842.364-.812.358-1.286 1.009-.47.65-.47 1.516 0 1.052.7 1.689.703.63 1.912.942l1.115.287q.526.134.918.306.397.168.618.421a.94.94 0 0 1 .224.632q-.004.42-.253.736-.25.31-.689.488-.435.172-1.014.172-.555 0-1.005-.167a1.67 1.67 0 0 1-.722-.507q-.277-.34-.316-.852h-1.745q.037.976.507 1.655.473.68 1.31 1.034.842.353 1.985.353 1.178 0 2.004-.363.833-.368 1.273-1.019.44-.655.44-1.516 0-.636-.24-1.11a2.5 2.5 0 0 0-.65-.808 3.8 3.8 0 0 0-.923-.555 6.3 6.3 0 0 0-1.067-.35l-.918-.229q-.301-.072-.598-.177a2.7 2.7 0 0 1-.54-.258 1.3 1.3 0 0 1-.388-.383 1 1 0 0 1-.139-.53q.004-.37.216-.656a1.4 1.4 0 0 1 .607-.455q.397-.167.952-.167.789 0 1.282.35m-14.621-1.717v1.488h3.028v8.308h1.76v-8.308h3.028v-1.488zm-2.03 0v9.796h-1.775v-9.796zm-11.166 0v9.796h3.965q1.124 0 1.866-.349.741-.35 1.11-.952.368-.607.368-1.368 0-.745-.306-1.272a2.2 2.2 0 0 0-.79-.813 2.1 2.1 0 0 0-1-.32v-.096q.48-.115.866-.378.388-.264.617-.684.23-.426.23-1.024 0-.728-.354-1.301-.35-.574-1.057-.904-.703-.335-1.765-.335zm3.683 8.313H51.55v-2.87h1.957q.55 0 .947.206.398.201.612.555.216.35.215.784 0 .584-.43.957-.426.368-1.392.368m-.153-4.147H51.55v-2.702h1.794q.785 0 1.182.368.4.368.401.938 0 .43-.215.746-.21.31-.579.483a2 2 0 0 1-.827.167m-9.883-4.166v9.796h-1.578l-4.616-6.672h-.082v6.672h-1.774v-9.796h1.588l4.611 6.678h.086v-6.678zm-10.51 9.796v-9.796h-1.775v9.796zm-13.824 0v-9.796h1.775v8.309h4.315v1.487zm-8.168-9.796v9.796h6.09v-1.487h-4.315v-8.31zM1.894 51.93H0l3.449-9.796h2.19l3.454 9.796H7.2l-.812-2.415H2.704zm2.688-7.787 1.326 3.946H3.182l1.324-3.946z" clip-rule="evenodd"/></svg>
